assets/images/ywc18/media-partners/IT-KMITL.svg

<svg width="129" height="129" viewBox="0 0 129 129" fill="none" xmlns="http://www.w3.org/2000/svg">
<g clip-path="url(#clip0)">
<path d="M25.4636 106.661C20.7522 106.661 16.8975 102.807 16.8975 98.0951V43.4036C16.8975 38.6922 20.7522 34.8374 25.4636 34.8374C30.175 34.8374 34.0298 38.6922 34.0298 43.4036V98.0951C34.0298 102.807 30.175 106.661 25.4636 106.661Z" fill="#0071BC"/>
<path d="M25.4636 28.248C20.7522 28.248 16.8975 24.3933 16.8975 19.6819C16.8975 14.9705 20.7522 11.1157 25.4636 11.1157C30.175 11.1157 34.0298 14.9705 34.0298 19.6819C34.0298 24.3933 30.175 28.248 25.4636 28.248Z" fill="#0071BC"/>
<path d="M98.539 34.8374H71.1932H43.8474C39.136 34.8374 35.2812 38.6922 35.2812 43.4036C35.2812 48.1149 39.136 51.9697 43.8474 51.9697H62.627V98.0951C62.627 102.807 66.4818 106.661 71.1932 106.661C75.9046 106.661 79.7593 102.807 79.7593 98.0951V51.9697H98.539C103.25 51.9697 107.105 48.1149 107.105 43.4036C107.105 38.6922 103.25 34.8374 98.539 34.8374Z" fill="#0071BC"/>
<path d="M9.12205 7.99215C11.3274 7.99215 13.1152 6.20436 13.1152 3.99901C13.1152 1.79365 11.3274 0.00585938 9.12205 0.00585938C6.9167 0.00585938 5.12891 1.79365 5.12891 3.99901C5.12891 6.20436 6.9167 7.99215 9.12205 7.99215Z" fill="#0071BC"/>
<path d="M5.19462 36.2208C7.66928 36.2208 9.67538 34.2147 9.67538 31.74C9.67538 29.2654 7.66928 27.2593 5.19462 27.2593C2.71997 27.2593 0.713867 29.2654 0.713867 31.74C0.713867 34.2147 2.71997 36.2208 5.19462 36.2208Z" fill="#0071BC"/>
<path d="M42.2006 18.7592C44.4569 18.7592 46.286 16.9301 46.286 14.6738C46.286 12.4175 44.4569 10.5884 42.2006 10.5884C39.9443 10.5884 38.1152 12.4175 38.1152 14.6738C38.1152 16.9301 39.9443 18.7592 42.2006 18.7592Z" fill="#0071BC"/>
<path d="M11.3363 4.84146L9.93848 6.23926L20.5617 16.8625L21.9595 15.4647L11.3363 4.84146Z" fill="#0071BC"/>
<path d="M20.1676 21.0556L7.6123 29.3066L8.69797 30.9587L21.2533 22.7076L20.1676 21.0556Z" fill="#0071BC"/>
<path d="M41.9331 13.3838L27.9189 18.7983L28.6314 20.6423L42.6455 15.2277L41.9331 13.3838Z" fill="#0071BC"/>
<path d="M48.9219 27.7207C52.6449 25.4473 58.5094 22.3306 66.186 20.2088C68.0837 19.6817 101.544 10.8322 113.893 27.3253C116.608 30.956 117.398 34.5999 117.715 36.155C122.663 60.3313 88.1153 85.608 85.0315 87.8155C89.6836 85.384 96.6947 81.2459 104.141 74.7686C112.101 67.8432 123.553 57.8735 126.94 42.0854C128.014 37.0841 130.063 27.5296 124.699 20.077C119.948 13.4745 111.883 11.9919 106.77 11.1353C82.119 6.97742 57.9625 21.6453 48.9219 27.7207Z" fill="#F26721"/>
<path d="M55.3003 127.998C54.9181 127.998 54.6084 127.688 54.6084 127.306V118.146C54.6084 117.764 54.9181 117.455 55.3003 117.455C55.6825 117.455 55.9922 117.764 55.9922 118.146V127.306C55.9922 127.688 55.6825 127.998 55.3003 127.998Z" fill="#1F56A4"/>
<path d="M69.8097 117.455H63.4049C63.1347 117.455 62.9238 117.764 62.9238 118.146C62.9238 118.529 63.1413 118.838 63.4049 118.838H65.9813V127.306C65.9813 127.688 66.291 127.998 66.6732 127.998C67.0554 127.998 67.3651 127.688 67.3651 127.306V118.838H69.8097C70.0799 118.838 70.2907 118.529 70.2907 118.146C70.2907 117.764 70.0799 117.455 69.8097 117.455Z" fill="#1F56A4"/>
<path d="M83.0677 126.614H78.666V118.146C78.666 117.764 78.3563 117.455 77.9741 117.455C77.5919 117.455 77.2822 117.764 77.2822 118.146V127.306C77.2822 127.688 77.4667 127.998 77.6908 127.998H77.9741H83.0677C83.2917 127.998 83.4762 127.688 83.4762 127.306C83.4762 126.923 83.2917 126.614 83.0677 126.614Z" fill="#1F56A4"/>
<path d="M27.697 127.259L24.5604 121.895L27.1039 118.364C27.3016 118.087 27.2093 117.685 26.8996 117.461C26.5899 117.237 26.1814 117.276 25.9837 117.553L22.3925 122.535V118.146C22.3925 117.764 22.0828 117.454 21.7007 117.454C21.3185 117.454 21.0088 117.764 21.0088 118.146V127.305C21.0088 127.687 21.3185 127.997 21.7007 127.997C22.0828 127.997 22.3925 127.687 22.3925 127.305V124.9L23.6775 123.121L26.5043 127.958C26.6427 128.195 27.0248 128.228 27.3543 128.037C27.6838 127.846 27.8353 127.496 27.697 127.259Z" fill="#1F56A4"/>
<path d="M46.4433 117.83C46.4433 117.83 46.0677 117.296 45.2902 117.349C44.5126 117.395 44.2425 117.678 44.0184 118.271L40.8819 126.376L37.7454 118.271C37.5147 117.678 37.2512 117.395 36.4736 117.349C35.6961 117.303 35.3205 117.83 35.3205 117.83C35.1821 117.955 35.0898 118.14 35.0898 118.344V127.503C35.0898 127.885 35.3995 128.195 35.7817 128.195C36.1639 128.195 36.4736 127.885 36.4736 127.503V118.812L39.7617 127.312C39.7749 127.345 39.7881 127.378 39.8078 127.411C39.8078 127.411 40.0714 128.188 40.8687 128.142C41.666 128.096 41.8439 127.721 42.0021 127.312L45.2902 118.812V127.503C45.2902 127.885 45.5999 128.195 45.982 128.195C46.3642 128.195 46.6739 127.885 46.6739 127.503V118.344C46.6673 118.14 46.5817 117.955 46.4433 117.83Z" fill="#1F56A4"/>
</g>
<defs>
<clipPath id="clip0">
<rect width="127.517" height="128.189" fill="white" transform="translate(0.713867 0.00585938)"/>
</clipPath>
</defs>
</svg>

<svg width="129" height="129" fill="none" xmlns="http://www.w3.org/2000/svg"><g clip-path="url(#clip0)"><path d="M25.46 106.66a8.6 8.6 0 01-8.56-8.56V43.4a8.6 8.6 0 018.56-8.56 8.6 8.6 0 018.57 8.56v54.7a8.6 8.6 0 01-8.57 8.56zM25.46 28.25a8.6 8.6 0 01-8.56-8.57 8.6 8.6 0 018.56-8.56 8.6 8.6 0 018.57 8.56 8.6 8.6 0 01-8.57 8.57zM98.54 34.84H43.85a8.6 8.6 0 00-8.57 8.56 8.6 8.6 0 008.57 8.57h18.78V98.1a8.6 8.6 0 008.56 8.56 8.6 8.6 0 008.57-8.56V51.97h18.78a8.6 8.6 0 008.56-8.57 8.6 8.6 0 00-8.56-8.56zM9.12 8a4 4 0 100-8 4 4 0 000 8zM5.2 36.22a4.48 4.48 0 100-8.96 4.48 4.48 0 000 8.96zM42.2 18.76a4.09 4.09 0 100-8.17 4.09 4.09 0 000 8.17z" fill="#0071BC"/><path d="M11.34 4.84l-1.4 1.4 10.62 10.62 1.4-1.4L11.34 4.84zM20.17 21.06L7.6 29.3l1.09 1.65 12.55-8.25-1.08-1.65zM41.93 13.38L27.92 18.8l.71 1.84 14.02-5.41-.72-1.85z" fill="#0071BC"/><path d="M48.92 27.72a67.79 67.79 0 0117.27-7.51c1.9-.53 35.35-9.38 47.7 7.12a21.6 21.6 0 013.83 8.83c4.94 24.17-29.6 49.45-32.69 51.66a99.18 99.18 0 0019.11-13.05c7.96-6.93 19.41-16.9 22.8-32.68 1.07-5 3.12-14.56-2.24-22.01-4.75-6.6-12.82-8.09-17.93-8.94-24.65-4.16-48.8 10.5-57.85 16.58z" fill="#F26721"/><path d="M55.3 128a.7.7 0 01-.7-.7v-9.15a.7.7 0 011.4 0v9.16a.7.7 0 01-.7.69zM69.81 117.45h-6.4c-.28 0-.49.31-.49.7 0 .38.22.69.48.69h2.58v8.47a.7.7 0 001.39 0v-8.47h2.44c.27 0 .48-.31.48-.7 0-.38-.21-.69-.48-.69zM83.07 126.61h-4.4v-8.46a.7.7 0 00-1.39 0v9.16c0 .38.19.69.41.69h5.38c.22 0 .4-.31.4-.7 0-.38-.18-.69-.4-.69zM27.7 127.26l-3.14-5.37 2.54-3.53c.2-.27.1-.67-.2-.9-.31-.22-.72-.18-.92.1l-3.59 4.97v-4.38a.7.7 0 10-1.38 0v9.16a.7.7 0 001.38 0v-2.41l1.29-1.78 2.82 4.84c.14.23.52.27.85.08.33-.2.49-.54.35-.78zM46.44 117.83s-.37-.53-1.15-.48c-.78.05-1.05.33-1.27.92l-3.14 8.1-3.13-8.1c-.24-.6-.5-.88-1.28-.92-.77-.05-1.15.48-1.15.48a.7.7 0 00-.23.51v9.16a.7.7 0 001.38 0v-8.69l3.3 8.5c0 .03.02.07.04.1 0 0 .26.78 1.06.73.8-.04.97-.42 1.13-.83l3.29-8.5v8.7a.7.7 0 101.38 0v-9.17c0-.2-.09-.39-.23-.51z" fill="#1F56A4"/></g><defs><clipPath id="clip0"><path fill="#fff" transform="translate(.71)" d="M0 0h127.52v128.19H0z"/></clipPath></defs></svg>
